X: 60
T: SHULE AROON
B: O'Neill's 60
M:  C
L: 1/8
Z: Transcribed by John Chambers <jc@trillian.mit.edu>
N: "Plaintively"
N: "Collected by J.O'Neill"
N: 2nd setting.
K:Am
AB \
|c2 c2 B2 B2|AB AG E3 G|G2 BAG GE cB|A3 G E2 FE|
|EF ED C2 CD|EG AB c2 cd|ed cB cB AG|A4 A2 z2||
||c4 B4|AB AG E2 z2|G3 A GE cB|A3 G E3 FE|
|EF ED C2 CD|EG AB c2 cd|ed cB cB AG|A4 A2 z2||
